X: 29364
T: Newmarket, The
R: polka
M: 2/4
K: Dmajor
|:DF AF/A/|dcBc|EF GF/G/|BA FA|
DE AF/A/|dc Bc|EF G/B/G/E/|DF D2:|
|:fA fA|fA f2|eB eB|_c/=c/d e2|
fA fA|fA f2|eB _c/=c/d|ed d2:|

